src/icons/solid/status/question.svg

<svg width="24" height="24" viewBox="0 0 24 24" fill="none" xmlns="http://www.w3.org/2000/svg">
<g clip-path="url(#clip0_4585_416)">
<path d="M12 2C6.48775 2 2 6.48775 2 12C2 17.5122 6.48775 22 12 22C17.5122 22 22 17.5122 22 12C22 6.48775 17.5011 2 12 2ZM12 18.6815C11.3987 18.6815 10.8976 18.1915 10.8976 17.5791C10.8976 16.9666 11.3875 16.4766 12 16.4766C12.6125 16.4766 13.1025 16.9666 13.1025 17.5791C13.1025 18.1915 12.6125 18.6815 12 18.6815ZM12.8352 12.1782V14.0601C12.8352 14.5167 12.4566 14.8953 12 14.8953C11.5434 14.8953 11.1648 14.5167 11.1648 14.0601V11.4432C11.1648 10.9866 11.5434 10.608 12 10.608C13.1247 10.608 13.8151 9.66147 13.8151 8.79287C13.8151 7.66815 12.8686 6.97773 12 6.97773C10.8753 6.97773 10.1849 7.92428 10.1849 8.79287C10.1849 9.24944 9.80624 9.62806 9.34967 9.62806C8.8931 9.62806 8.51448 9.24944 8.51448 8.79287C8.51448 6.86637 10.0735 5.30735 12 5.30735C13.9265 5.30735 15.4855 6.86637 15.4855 8.79287C15.4855 10.4298 14.3608 11.7996 12.8352 12.1782Z" fill="#3C3B44"/>
</g>
<defs>
<clipPath id="clip0_4585_416">
<rect width="24" height="24" fill="white"/>
</clipPath>
</defs>
</svg>

<svg xmlns="http://www.w3.org/2000/svg" width="24" height="24" fill="none" viewBox="0 0 24 24"><g clip-path="url(#a)"><path fill="currentColor" d="M12 2C6.488 2 2 6.488 2 12s4.488 10 10 10 10-4.488 10-10S17.501 2 12 2m0 16.682c-.601 0-1.102-.49-1.102-1.103 0-.612.49-1.102 1.102-1.102s1.102.49 1.102 1.102-.49 1.102-1.102 1.102m.835-6.504v1.882a.84.84 0 0 1-.835.835.84.84 0 0 1-.835-.835v-2.617c0-.456.378-.835.835-.835 1.125 0 1.815-.947 1.815-1.815 0-1.125-.946-1.815-1.815-1.815-1.125 0-1.815.946-1.815 1.815a.84.84 0 0 1-.835.835.84.84 0 0 1-.836-.835A3.484 3.484 0 0 1 12 5.307a3.487 3.487 0 0 1 .835 6.87"/></g><defs><clipPath id="a"><path fill="currentColor" d="M0 0h24v24H0z"/></clipPath></defs></svg>
